X:525
T:
N:
S:Uppt. efter Henrik Dillander i Alva.
R:vals
O:Gotland, Alva
M:3/4
L:1/8
K:G
G2 (GF)(GB)|d2 (dB)(GB)|(dB)(GB)(eB)|(dB) (GD) (B,G,)|
G2 (GF)(GB)|d2 (dB)(GB)|d2 (dB)(ec)|d6::(Bd)(gf)(ed)|
(ef)(ed) e2|(cA)(FA)(ce)|(de)(d^c) d2|LG2 LB2 LA2|G4 z2:|

